src/img/logos/instagram.svg

<svg width="150" height="150" viewBox="0 0 150 150" fill="none" xmlns="http://www.w3.org/2000/svg">
<path fill-rule="evenodd" clip-rule="evenodd" d="M75 0C116.394 0 150 33.6064 150 75C150 116.394 116.394 150 75 150C33.6064 150 0 116.394 0 75C0 33.6064 33.6064 0 75 0ZM75 28.125C62.2696 28.125 60.6732 28.1789 55.6734 28.4071C50.6842 28.6348 47.2767 29.4272 44.2948 30.5859C41.2125 31.7839 38.5983 33.3867 35.9924 35.9927C33.3864 38.5986 31.7836 41.2128 30.5856 44.2951C29.427 47.2767 28.6348 50.6842 28.4068 55.6734C28.1789 60.6732 28.125 62.2696 28.125 75C28.125 87.7304 28.1789 89.3268 28.4068 94.3266C28.6348 99.3158 29.427 102.723 30.5856 105.705C31.7836 108.787 33.3864 111.401 35.9924 114.008C38.5983 116.614 41.2125 118.216 44.2948 119.414C47.2767 120.573 50.6842 121.365 55.6734 121.593C60.6732 121.821 62.2696 121.875 75 121.875C87.7304 121.875 89.3268 121.821 94.3266 121.593C99.3158 121.365 102.723 120.573 105.705 119.414C108.787 118.216 111.401 116.614 114.008 114.008C116.614 111.401 118.216 108.787 119.414 105.705C120.573 102.723 121.365 99.3158 121.593 94.3266C121.821 89.3268 121.875 87.7304 121.875 75C121.875 62.2696 121.821 60.6732 121.593 55.6734C121.365 50.6842 120.573 47.2767 119.414 44.2951C118.216 41.2128 116.614 38.5986 114.008 35.9927C111.401 33.3867 108.787 31.7839 105.705 30.5859C102.723 29.4272 99.3158 28.6348 94.3266 28.4071C89.3268 28.1789 87.7304 28.125 75 28.125ZM75 36.571C87.5162 36.571 88.9986 36.6188 93.9416 36.8443C98.5119 37.0529 100.994 37.8164 102.645 38.4583C104.834 39.3085 106.395 40.3245 108.035 41.9648C109.676 43.6049 110.692 45.1667 111.542 47.3546C112.184 49.0063 112.947 51.4881 113.156 56.0584C113.381 61.0014 113.429 62.4838 113.429 75C113.429 87.5162 113.381 88.9986 113.156 93.9416C112.947 98.5119 112.184 100.994 111.542 102.645C110.692 104.834 109.676 106.395 108.035 108.035C106.395 109.676 104.834 110.692 102.645 111.542C100.994 112.184 98.5119 112.947 93.9416 113.156C88.9995 113.381 87.5171 113.429 75 113.429C62.4829 113.429 61.0008 113.381 56.0584 113.156C51.4881 112.947 49.0063 112.184 47.3546 111.542C45.1664 110.692 43.6049 109.676 41.9646 108.035C40.3242 106.395 39.3085 104.834 38.4583 102.645C37.8164 100.994 37.0526 98.5119 36.844 93.9416C36.6185 88.9986 36.571 87.5162 36.571 75C36.571 62.4838 36.6185 61.0014 36.844 56.0584C37.0526 51.4881 37.8164 49.0063 38.4583 47.3546C39.3085 45.1667 40.3242 43.6049 41.9646 41.9648C43.6049 40.3245 45.1664 39.3085 47.3546 38.4583C49.0063 37.8164 51.4881 37.0529 56.0584 36.8443C61.0014 36.6188 62.4838 36.571 75 36.571ZM75 50.9291C61.706 50.9291 50.9291 61.706 50.9291 75C50.9291 88.294 61.706 99.0709 75 99.0709C88.294 99.0709 99.0709 88.294 99.0709 75C99.0709 61.706 88.294 50.9291 75 50.9291ZM75 90.6249C66.3706 90.6249 59.3751 83.6294 59.3751 75C59.3751 66.3706 66.3706 59.3751 75 59.3751C83.6294 59.3751 90.6249 66.3706 90.6249 75C90.6249 83.6294 83.6294 90.6249 75 90.6249ZM105.647 49.9781C105.647 53.0848 103.129 55.6028 100.022 55.6028C96.9155 55.6028 94.3972 53.0848 94.3972 49.9781C94.3972 46.8715 96.9155 44.3531 100.022 44.3531C103.129 44.3531 105.647 46.8715 105.647 49.9781Z" fill="black"/>
</svg>

<?xml version="1.0" encoding="utf-8"?>
<!-- Generator: Adobe Illustrator 16.0.2, SVG Export Plug-In . SVG Version: 6.00 Build 0)  -->
<!DOCTYPE svg PUBLIC "-//W3C//DTD SVG 1.1//EN" "http://www.w3.org/Graphics/SVG/1.1/DTD/svg11.dtd">
<svg version="1.1" id="Layer_1" xmlns="http://www.w3.org/2000/svg" xmlns:xlink="http://www.w3.org/1999/xlink" x="0px" y="0px"
	 width="150px" height="150px" viewBox="0 0 150 150" enable-background="new 0 0 150 150" xml:space="preserve">
<path fill="#EBE4E9" d="M75,0c41.395,0,75,33.606,75,75c0,41.395-33.605,75-75,75c-41.394,0-75-33.605-75-75C0,33.606,33.606,0,75,0
	z M75,28.125c-12.73,0-14.327,0.054-19.327,0.282c-4.989,0.228-8.396,1.02-11.378,2.179c-3.083,1.198-5.697,2.801-8.303,5.407
	s-4.208,5.22-5.407,8.302c-1.159,2.982-1.951,6.389-2.179,11.378c-0.228,5-0.282,6.596-0.282,19.327s0.054,14.326,0.282,19.326
	c0.228,4.99,1.02,8.396,2.179,11.379c1.198,3.082,2.801,5.695,5.407,8.303c2.606,2.606,5.22,4.208,8.303,5.406
	c2.982,1.159,6.389,1.951,11.378,2.179c5,0.228,6.596,0.282,19.327,0.282s14.326-0.055,19.326-0.282
	c4.99-0.228,8.396-1.02,11.379-2.179c3.082-1.198,5.695-2.8,8.303-5.406c2.605-2.607,4.208-5.221,5.406-8.303
	c1.159-2.982,1.951-6.389,2.179-11.379c0.228-5,0.282-6.596,0.282-19.326s-0.055-14.327-0.282-19.327
	c-0.228-4.989-1.02-8.396-2.179-11.378c-1.198-3.082-2.801-5.696-5.406-8.302c-2.607-2.606-5.221-4.209-8.303-5.407
	c-2.982-1.159-6.389-1.951-11.379-2.179C89.326,28.179,87.73,28.125,75,28.125z M75,36.571c12.516,0,13.998,0.048,18.941,0.273
	c4.57,0.208,7.053,0.972,8.703,1.614c2.189,0.85,3.75,1.866,5.391,3.506s2.656,3.202,3.507,5.39
	c0.642,1.652,1.405,4.134,1.614,8.704c0.225,4.943,0.273,6.425,0.273,18.941c0,12.516-0.049,13.998-0.273,18.941
	c-0.209,4.57-0.973,7.053-1.614,8.703c-0.851,2.189-1.866,3.75-3.507,5.391s-3.201,2.656-5.391,3.507
	c-1.65,0.642-4.133,1.405-8.703,1.614C89,113.381,87.518,113.43,75,113.43c-12.517,0-13.999-0.049-18.941-0.273
	c-4.57-0.209-7.052-0.973-8.704-1.614c-2.188-0.851-3.75-1.866-5.39-3.507c-1.641-1.641-2.656-3.201-3.506-5.391
	c-0.642-1.65-1.406-4.133-1.614-8.703c-0.226-4.943-0.273-6.426-0.273-18.941c0-12.516,0.048-13.999,0.273-18.941
	c0.208-4.57,0.972-7.052,1.614-8.704c0.85-2.188,1.866-3.75,3.506-5.39c1.64-1.64,3.202-2.656,5.39-3.506
	c1.652-0.642,4.134-1.406,8.704-1.614C61.001,36.619,62.484,36.571,75,36.571z M75,50.929c-13.294,0-24.071,10.777-24.071,24.071
	S61.706,99.07,75,99.07S99.07,88.294,99.07,75S88.294,50.929,75,50.929z M75,90.625c-8.629,0-15.625-6.996-15.625-15.625
	c0-8.629,6.996-15.625,15.625-15.625c8.629,0,15.625,6.996,15.625,15.625C90.625,83.629,83.629,90.625,75,90.625z M105.646,49.978
	c0,3.107-2.518,5.625-5.625,5.625c-3.105,0-5.625-2.518-5.625-5.625c0-3.106,2.52-5.625,5.625-5.625
	C103.129,44.353,105.646,46.872,105.646,49.978z"/>
</svg>
